images/ic_rain.svg

<svg width="24" height="24" viewBox="0 0 24 24" fill="none" xmlns="http://www.w3.org/2000/svg">
<rect x="7.31128" y="15.3921" width="3.91399" height="1.76319" rx="0.881596" transform="rotate(114.296 7.31128 15.3921)" fill="#1B76BC"/>
<rect x="16.9109" y="15.3921" width="3.91399" height="1.76319" rx="0.881596" transform="rotate(114.296 16.9109 15.3921)" fill="#1B76BC"/>
<rect x="10.7983" y="18.6931" width="5.24323" height="1.76319" rx="0.881596" transform="rotate(114.296 10.7983 18.6931)" fill="#1B76BC"/>
<rect x="12.4055" y="15.136" width="3.10669" height="1.76319" rx="0.881596" transform="rotate(114.296 12.4055 15.136)" fill="#1B76BC"/>
<path fill-rule="evenodd" clip-rule="evenodd" d="M9.51724 6.69733L7.94978 6.43388C7.80206 6.40905 7.64925 6.39594 7.49204 6.39594C5.98494 6.39594 4.76319 7.61769 4.76319 9.12479C4.76319 10.6319 5.98494 11.8536 7.49204 11.8536L17.754 11.8536L17.8776 11.8345C18.6472 11.7153 19.2368 11.0468 19.2368 10.2438C19.2368 9.4286 18.6293 8.75246 17.843 8.6481L16.0285 8.40725L16.3371 6.603C16.368 6.42244 16.3843 6.23576 16.3843 6.04389C16.3843 4.23201 14.9154 2.76319 13.1036 2.76319C11.598 2.76319 10.3252 3.7788 9.94131 5.16551L9.51724 6.69733ZM18.1475 13.5769V13.6168L7.49204 13.6168C5.01116 13.6168 3 11.6057 3 9.12479C3 6.6439 5.01116 4.63275 7.49204 4.63275C7.74758 4.63275 7.99814 4.65409 8.24203 4.69508C8.83191 2.56432 10.7851 1 13.1036 1C15.8892 1 18.1474 3.25823 18.1474 6.04389C18.1474 6.20666 18.1397 6.36764 18.1247 6.52647C18.1127 6.65247 18.0961 6.77711 18.075 6.90024C18.1588 6.91136 18.2416 6.92555 18.3233 6.94269C19.8521 7.26356 21 8.61961 21 10.2438C21 11.9296 19.7632 13.3266 18.1475 13.5769Z" fill="#1B76BC"/>
</svg>

<svg xmlns="http://www.w3.org/2000/svg" viewBox="0 0 24 24" fill="#1b76bc"><rect transform="rotate(114.3 7.311 15.392)" x="7.311" y="15.392" width="3.914" height="1.763" rx=".882"/><rect transform="rotate(114.3 16.911 15.392)" x="16.911" y="15.392" width="3.914" height="1.763" rx=".882"/><rect transform="rotate(114.3 10.798 18.693)" x="10.798" y="18.693" width="5.243" height="1.763" rx=".882"/><rect transform="rotate(114.3 12.406 15.136)" x="12.406" y="15.136" width="3.107" height="1.763" rx=".882"/><path d="M9.517 6.697L7.95 6.434a2.76 2.76 0 0 0-.458-.038 2.73 2.73 0 0 0-2.729 2.729 2.73 2.73 0 0 0 2.729 2.729h10.262l.124-.02a1.61 1.61 0 0 0-.035-3.186l-1.815-.24.31-1.804a3.31 3.31 0 0 0 .047-.559 3.28 3.28 0 0 0-3.281-3.281c-1.506 0-2.778 1.016-3.162 2.402l-.424 1.532zm8.63 6.88v.04H7.493C5.012 13.617 3 11.606 3 9.125s2.01-4.492 4.492-4.492c.256 0 .506.02.75.062C8.832 2.564 10.786 1 13.104 1c2.786 0 5.044 2.258 5.044 5.044l-.023.483-.05.374.248.042c1.53.32 2.677 1.677 2.677 3.3 0 1.686-1.237 3.083-2.852 3.333z" fill-rule="evenodd"/></svg>
